symbolic/48x48/places/folder-cyan-mail-cloud.svg

<svg xmlns="http://www.w3.org/2000/svg" width="48" height="48" version="1"><rect style="opacity:.2" width="40" height="26" x="4" y="17" rx="2" ry="2"/><path style="fill:#0096aa" d="M4 34c0 1.108.892 2 2 2h36c1.108 0 2-.892 2-2V12c0-1.108-.892-2-2-2H24c-3 0-4-4-7-4H6c-1.108 0-2 .892-2 2"/><rect style="opacity:.2" width="40" height="26" x="4" y="15" rx="2" ry="2"/><rect style="fill:#b2bfd9" width="36" height="16" x="6" y="13" rx="2" ry="2"/><rect style="fill:#00bcd4" width="40" height="26" x="4" y="16" rx="2" ry="2"/><path style="opacity:.1;fill:#f4f4f7" d="M6 6c-1.108 0-2 .892-2 2v1c0-1.108.892-2 2-2h11c3 0 4 4 7 4h18c1.108 0 2 .892 2 2v-1c0-1.108-.892-2-2-2H24c-3 0-4-4-7-4z"/><path style="fill:#00424a" d="M23 23a5 5 0 0 0-4.732 3.398A4 4 0 0 0 16 30a4 4 0 0 0 4 4 4 4 0 0 0 2.658-1.018A5 5 0 0 0 23 33a5 5 0 0 0 2.113-.475A4 4 0 0 0 27 33a4 4 0 0 0 4-4 4 4 0 0 0-4-4 4 4 0 0 0-.008 0A5 5 0 0 0 23 23z"/></svg>

<svg xmlns="http://www.w3.org/2000/svg" width="48" height="48" version="1">
 <rect style="opacity:0.2" width="40" height="26" x="4" y="17" rx="2" ry="2"/>
 <path style="fill:#0096aa" d="M 4,34 C 4,35.108 4.892,36 6,36 H 42 C 43.108,36 44,35.108 44,34 V 12 C 44,10.892 43.108,10 42,10 H 24 C 21,10 20,6 17,6 H 6 C 4.892,6 4,6.892 4,8"/>
 <rect style="opacity:0.2" width="40" height="26" x="4" y="15" rx="2" ry="2"/>
 <rect style="fill:#b2bfd9" width="36" height="16" x="6" y="13" rx="2" ry="2"/>
 <rect style="fill:#00bcd4" width="40" height="26" x="4" y="16" rx="2" ry="2"/>
 <path style="opacity:0.1;fill:#f4f4f7" d="M 6,6 C 4.892,6 4,6.892 4,8 V 9 C 4,7.892 4.892,7 6,7 H 17 C 20,7 21,11 24,11 H 42 C 43.108,11 44,11.892 44,13 V 12 C 44,10.892 43.108,10 42,10 H 24 C 21,10 20,6 17,6 Z"/>
 <path style="fill:#00424a" d="M 23,23 A 5,5 0 0 0 18.268,26.398 4,4 0 0 0 16,30 4,4 0 0 0 20,34 4,4 0 0 0 22.658,32.982 5,5 0 0 0 23,33 5,5 0 0 0 25.113,32.525 4,4 0 0 0 27,33 4,4 0 0 0 31,29 4,4 0 0 0 27,25 4,4 0 0 0 26.992,25 5,5 0 0 0 23,23 Z"/>
</svg>
